X:1
T:Trollspolska
T:Hambo in Dm
O:Sweden
L:1/8
M:3/4
K:Dm
A,2|:"Dm"D2 D>E F>G|"Dm"A2 A>^c d>e|"Dm"f>g f>e d2|"F"c>d c<AF2|
"Gm"B>c B>A G>B|"Dm" A>B A>G F2|"A7" E>F E>D ^C>E|1"Dm"D2D3A, :|2"Dm"D2 D4||
|:"Dm"a>g f>e f>a|"C"g>a g<e c2|"Dm"f>e d>^c d<f |"A"e>f e<^c A2|
"Bb"d>c B>A B>d|"F" c>d c<A F2| "A"E>F E>D ^C>E|"Dm"D2 D4:|
